assets/img/service/support_02.svg

<svg fill="none" height="42" viewBox="0 0 43 42" width="43" xmlns="http://www.w3.org/2000/svg"><path d="m39.1738 34.6484c.6328.7032.6328 1.7578-.0703 2.3907l-1.9687 1.9687c-.6328.7031-1.6875.7031-2.3907 0l-6.9609-6.9609c-.3516-.3516-.4922-.7735-.4922-1.1953v-1.1954c-2.5312 1.9688-5.625 3.0938-9 3.0938-8.0859 0-14.62498-6.5391-14.62498-14.625 0-8.0156 6.53908-14.625 14.62498-14.625 8.0156 0 14.625 6.6094 14.625 14.625 0 3.4453-1.1953 6.5391-3.0937 9h1.125c.4218 0 .8437.2109 1.1953.4922zm-20.8828-7.5234c4.9219 0 9-4.0078 9-9 0-4.9219-4.0781-9-9-9-4.9922 0-8.99998 4.0781-8.99998 9 0 4.9922 4.00778 9 8.99998 9z" fill="#b9ac88"/></svg>

<svg width="43" height="42" viewBox="0 0 43 42" fill="none" xmlns="http://www.w3.org/2000/svg">
<path d="M39.1738 34.6484C39.8066 35.3516 39.8066 36.4062 39.1035 37.0391L37.1348 39.0078C36.502 39.7109 35.4473 39.7109 34.7441 39.0078L27.7832 32.0469C27.4316 31.6953 27.291 31.2734 27.291 30.8516V29.6562C24.7598 31.625 21.666 32.75 18.291 32.75C10.2051 32.75 3.66602 26.2109 3.66602 18.125C3.66602 10.1094 10.2051 3.5 18.291 3.5C26.3066 3.5 32.916 10.1094 32.916 18.125C32.916 21.5703 31.7207 24.6641 29.8223 27.125H30.9473C31.3691 27.125 31.791 27.3359 32.1426 27.6172L39.1738 34.6484ZM18.291 27.125C23.2129 27.125 27.291 23.1172 27.291 18.125C27.291 13.2031 23.2129 9.125 18.291 9.125C13.2988 9.125 9.29102 13.2031 9.29102 18.125C9.29102 23.1172 13.2988 27.125 18.291 27.125Z" fill="#B9AC88"/>
</svg>
